svg/black/xsg.svg

<svg width="32" height="32" viewBox="0 0 32 32" version="1.1" xmlns="http://www.w3.org/2000/svg" xmlns:xlink="http://www.w3.org/1999/xlink"><title>svg/black/xsg</title><desc>Created with Sketch.</desc><g id="black/xsg" stroke="none" stroke-width="1" fill="none" fill-rule="evenodd"><path d="M16,32 C7.163444,32 0,24.836556 0,16 C0,7.163444 7.163444,0 16,0 C24.836556,0 32,7.163444 32,16 C32,24.836556 24.836556,32 16,32 Z M16.1404255,5.85531915 L24.3085106,10.5595745 L26.7659574,9.13191489 L16.1404255,3 L16.1404255,5.85531915 Z M24.4723404,20.2723404 L26.9531915,21.7 L26.9531915,9.43617021 L24.4723404,10.8638298 L24.4723404,20.2723404 Z M16.1404255,25.2808511 L16.1404255,28.1361702 L26.7659574,22.0042553 L24.3085106,20.5765957 L16.1404255,25.2808511 Z M5.16382979,22.0042553 L15.7893617,28.1361702 L15.7893617,25.2808511 L7.64468085,20.5765957 L5.16382979,22.0042553 Z M5,9.43617021 L5,21.7 L7.45744681,20.2723404 L7.45744681,10.8638298 L5,9.43617021 Z M5.16382979,9.13191489 L7.64468085,10.5595745 L15.7893617,5.85531915 L15.7893617,3 L5.16382979,9.13191489 Z M15.9882979,6.12446809 L7.79680851,10.8287234 L7.79680851,20.2840426 L15.9882979,25.0117021 L24.156383,20.2840426 L24.156383,10.8287234 L15.9882979,6.12446809 Z M22.5648936,14.5734043 L22.2138298,15.1819149 L19.8734043,13.8712766 L16.8776596,15.556383 L19.8734043,17.2414894 L22.2138298,15.9308511 L22.5648936,16.5393617 L20.5989362,17.6393617 L22.5648936,18.7393617 L22.2138298,19.3478723 L20.2478723,18.2478723 L20.2478723,20.4478723 L19.5223404,20.4478723 L19.5223404,17.85 L16.5265957,16.1648936 L16.5265957,19.5351064 L18.843617,20.8223404 L18.4925532,21.4191489 L16.5265957,20.3191489 L16.5265957,22.5191489 L15.8010638,22.5191489 L15.8010638,20.3191489 L13.8351064,21.4191489 L13.4606383,20.8106383 L15.8010638,19.5234043 L15.8010638,16.1648936 L12.8053191,17.85 L12.8053191,20.4478723 L12.056383,20.4478723 L12.056383,18.2478723 L10.1138298,19.3478723 L9.7393617,18.7393617 L11.7053191,17.6393617 L9.7393617,16.5393617 L10.1138298,15.9308511 L12.4308511,17.2414894 L15.45,15.556383 L12.4308511,13.8712766 L10.1138298,15.1819149 L9.7393617,14.5734043 L11.7053191,13.4734043 L9.7393617,12.3734043 L10.1138298,11.7648936 L12.056383,12.8648936 L12.056383,10.6531915 L12.8053191,10.6531915 L12.8053191,13.2510638 L15.8010638,14.9361702 L15.8010638,11.5776596 L13.4840426,10.2904255 L13.8351064,9.68191489 L15.8010638,10.7819149 L15.8010638,8.58191489 L16.5265957,8.58191489 L16.5265957,10.7819149 L18.4925532,9.68191489 L18.843617,10.2904255 L16.5265957,11.5776596 L16.5265957,14.9478723 L19.5223404,13.262766 L19.5223404,10.6531915 L20.2478723,10.6531915 L20.2478723,12.8531915 L22.2138298,11.7531915 L22.5648936,12.3617021 L20.5989362,13.4617021 L22.5648936,14.5734043 Z" id="Combined-Shape-Copy" fill="#000" fill-rule="nonzero"/></g></svg>

<svg width="32" height="32" viewBox="0 0 32 32" xmlns="http://www.w3.org/2000/svg"><path d="M16 32C7.163 32 0 24.837 0 16S7.163 0 16 0s16 7.163 16 16-7.163 16-16 16zm.14-26.145l8.169 4.705 2.457-1.428L16.14 3v2.855zm8.332 14.417l2.481 1.428V9.436l-2.48 1.428v9.408zm-8.332 5.009v2.855l10.626-6.132-2.457-1.427-8.169 4.704zM5.164 22.004l10.625 6.132v-2.855l-8.144-4.704-2.481 1.427zM5 9.436V21.7l2.457-1.428v-9.408L5 9.436zm.164-.304l2.48 1.428 8.145-4.705V3L5.164 9.132zm10.824-3.008L7.797 10.83v9.455l8.191 4.728 8.168-4.728V10.83l-8.168-4.705zm6.577 8.45l-.351.608-2.34-1.31-2.996 1.684 2.995 1.685 2.34-1.31.352.608-1.966 1.1 1.966 1.1-.351.609-1.966-1.1v2.2h-.726V17.85l-2.995-1.685v3.37l2.317 1.287-.351.597-1.966-1.1v2.2H15.8v-2.2l-1.966 1.1-.374-.608 2.34-1.288v-3.358l-2.996 1.685v2.598h-.749v-2.2l-1.942 1.1-.375-.609 1.966-1.1-1.966-1.1.375-.608 2.317 1.31 3.019-1.685-3.02-1.685-2.316 1.31-.375-.608 1.966-1.1-1.966-1.1.375-.608 1.942 1.1v-2.212h.75v2.598l2.995 1.685v-3.358l-2.317-1.288.351-.608 1.966 1.1v-2.2h.726v2.2l1.966-1.1.35.608-2.316 1.288v3.37l2.995-1.685v-2.61h.726v2.2l1.966-1.1.35.609-1.965 1.1 1.966 1.111z"/></svg>
